src/assets/img/icons/duotone-icons/Design/Picker.svg

<?xml version="1.0" encoding="UTF-8"?>
<svg width="24px" height="24px" viewBox="0 0 24 24" version="1.1" xmlns="http://www.w3.org/2000/svg" xmlns:xlink="http://www.w3.org/1999/xlink">
    <!-- Generator: Sketch 52.2 (67145) - http://www.bohemiancoding.com/sketch -->
    <title>Stockholm-icons / Design / Picker</title>
    <desc>Created with Sketch.</desc>
    <g id="Stockholm-icons-/-Design-/-Picker" stroke="none" stroke-width="1" fill="none" fill-rule="evenodd">
        <rect id="bound" x="0" y="0" width="24" height="24"></rect>
        <path d="M10.232233,10.232233 L13.767767,13.767767 L8.46446609,19.0710678 C7.48815536,20.0473785 5.90524292,20.0473785 4.92893219,19.0710678 C3.95262146,18.0947571 3.95262146,16.5118446 4.92893219,15.5355339 L10.232233,10.232233 Z" id="Rectangle-42" fill="#335EEA"></path>
        <path d="M13.767767,6.69669914 L15.5355339,4.92893219 C16.5118446,3.95262146 18.0947571,3.95262146 19.0710678,4.92893219 C20.0473785,5.90524292 20.0473785,7.48815536 19.0710678,8.46446609 L17.3033009,10.232233 L18.363961,11.2928932 C18.9497475,11.8786797 18.9497475,12.8284271 18.363961,13.4142136 C17.7781746,14 16.8284271,14 16.2426407,13.4142136 L10.5857864,7.75735931 C10,7.17157288 10,6.22182541 10.5857864,5.63603897 C11.1715729,5.05025253 12.1213203,5.05025253 12.7071068,5.63603897 L13.767767,6.69669914 Z" id="Combined-Shape" fill="#335EEA" opacity="0.3"></path>
    </g>
</svg>

<svg width="24" height="24" viewBox="0 0 24 24" xmlns="http://www.w3.org/2000/svg"><g fill="none" fill-rule="evenodd"><path d="M0 0h24v24H0z"/><path d="M10.232 10.232l3.536 3.536-5.304 5.303a2.5 2.5 0 01-3.535-3.535l5.303-5.304z" fill="#335EEA"/><path d="M13.768 6.697l1.768-1.768a2.5 2.5 0 113.535 3.535l-1.768 1.768 1.061 1.06a1.5 1.5 0 11-2.121 2.122l-5.657-5.657a1.5 1.5 0 012.121-2.121l1.06 1.06z" fill="#335EEA" opacity=".3"/></g></svg>
